X:66
T:It's Three O'Clock We'll Have t'Other Dance THO1.066
M:C|
L:1/8
Z:vmp. Peter Dunk 2012.from a transcription by Fynn Titford-Mock 2006
B:Thompson's Compleat Collection of 200 Favourite Country Dances Vol.I,1758
Q:1/2=70
K:G
G2 Bd g>agB|AGAB (A/G/A/B/) AD|G2 Bd g>agB|AGAB GG/G/ G2:|
|:g>agd (g/f/g/a/) gd|g>agd (A/G/A/B/) AD|\
g>agd (g/f/g/a/) gd|(e/f/g)dB G/G/G G2:|

